X: 19209
T: Islay Rant
R: reel
M: 4/4
K: Adorian
EA{G}AB cBcd|e~A3 eAfA|~g3f gedB|G{A}GBG cGBG|
EA{G}AB cBcd|e~A3 eAfA|~g3f gedB|1 GABG A3 G:|2 GABG A3g||
|:~a3g aged|c~A3 eAfA|~g3f gedB|G{A}GBG cGBG|
^c~A3 cAdA|e~A3 eAfA|~g3f gedB|1 GABG A3 g:|2 GABG A4||

